X:1
T:[ID 1-124b]
T:[ID 1-124b]
T:Bezeichnung standardisiert: Menuett Menuet
T:Urheber unbekannt Datum in der hier transkribierten schriftlichen Quelle: vermutlich vor 1767
C:Urheber unbekannt
C:Datum in der hier transkribierten schriftlichen Quelle: vermutlich vor 1767
L:1/8
M:none
K:D
V:1 treble 
V:1
 f4 e/f/g | fedc d2 | A2 B2 c2 | d4 e2 | fedcBA | ^GBe^g b2 | BdcAB^G | A6 :: e4 fd | ec A2 a2 | %10
 a2 g2 f2 | e2 dcBA | f4 (e/f/)g | fedcdA | BG TF2 GE | D6 :| %16

